public/library/fraxscan-text-light.svg

<svg width="676" height="150" viewBox="0 0 676 150" fill="none" xmlns="http://www.w3.org/2000/svg">
<g clip-path="url(#clip0_13163_6530)">
<path d="M75 150C64.8769 150 55.0554 148.016 45.8054 144.105C36.8729 140.327 28.8559 134.919 21.9661 128.034C15.0815 121.149 9.67332 113.127 5.89501 104.195C1.98441 94.9446 0 85.1231 0 75C0 64.8769 1.98441 55.0554 5.89501 45.8054C9.67332 36.8729 15.0815 28.8559 21.9661 21.9661C28.8506 15.0815 36.8729 9.67332 45.8054 5.89501C55.0554 1.98441 64.8769 0 75 0C85.1231 0 94.9446 1.98441 104.195 5.89501C113.127 9.67332 121.144 15.0815 128.034 21.9661C134.919 28.8506 140.327 36.8729 144.105 45.8054C148.016 55.0554 150 64.8769 150 75C150 85.1231 148.016 94.9446 144.105 104.195C140.327 113.127 134.919 121.144 128.034 128.034C121.149 134.919 113.127 140.327 104.195 144.105C94.9446 148.016 85.1231 150 75 150Z" fill="white"/>
<path d="M74.9986 146.026C114.225 146.026 146.024 114.227 146.024 75C146.024 35.7735 114.225 3.97411 74.9986 3.97411C35.772 3.97411 3.97266 35.7735 3.97266 75C3.97266 114.227 35.772 146.026 74.9986 146.026Z" fill="black"/>
<path d="M124.297 51.3353H110.703C109.775 48.3511 108.135 45.6377 105.924 43.4294C103.675 41.1804 100.966 39.5506 98.0182 38.6404V25.0564H88.3608V38.217C84.9348 38.9596 81.7963 40.6758 79.3225 43.1595L72.8877 49.5943C71.0038 51.4782 71.0038 54.5368 72.8877 56.4259C74.7716 58.3098 77.8302 58.3098 79.7193 56.4259L86.1541 49.9912C87.8263 48.319 90.0859 47.4194 92.5042 47.4458C94.9755 47.4776 97.3144 48.4777 99.0977 50.2611C102.738 53.9018 102.86 59.7121 99.3676 63.2047L85.8366 76.7357C82.3441 80.2282 76.5337 80.1065 72.893 76.4658C71.0091 74.582 67.9505 74.582 66.0613 76.4658C64.1775 78.3497 64.1775 81.4083 66.0613 83.2975C69.8132 87.0493 74.7292 88.9332 79.6135 88.9332C84.3655 88.9332 89.0857 87.1499 92.6683 83.5673L106.199 70.0363C108.766 67.4698 110.401 64.3212 111.131 60.998H124.308V51.3406L124.297 51.3353Z" fill="white"/>
<path d="M69.5244 93.0502L63.0896 99.4849C59.5971 102.978 53.792 102.856 50.146 99.2151C46.5053 95.5743 46.3836 89.764 49.8761 86.2714L63.4072 72.7404C66.8997 69.2479 72.7101 69.3696 76.3508 73.0103C78.2346 74.8942 81.2933 74.8942 83.1824 73.0103C85.0663 71.1264 85.0663 68.0678 83.1824 66.1787C75.774 58.7702 63.8411 58.6485 56.5808 65.9088L43.0498 79.4398C40.4833 82.0063 38.8481 85.1549 38.1179 88.4781H24.9414V98.1355H38.5359C39.4633 101.12 41.1033 103.833 43.3144 106.041C45.6057 108.333 48.331 109.926 51.2202 110.82V124.42H60.8777V111.243C64.2062 110.518 67.3548 108.878 69.916 106.311L76.3508 99.8765C78.2346 97.9927 78.2346 94.934 76.3508 93.0449C74.4669 91.161 71.4083 91.161 69.5191 93.0449L69.5244 93.0502Z" fill="white"/>
</g>
<path d="M196.953 114V34H249.922V47.9453H213.867V67.0078H246.406V80.9531H213.867V114H196.953Z" fill="black"/>
<path d="M260.02 114V54H276.152V64.4688H276.777C277.871 60.7448 279.707 57.9323 282.285 56.0313C284.863 54.1042 287.832 53.1406 291.191 53.1406C292.025 53.1406 292.923 53.1927 293.887 53.2969C294.85 53.401 295.697 53.5443 296.426 53.7266V68.4922C295.645 68.2578 294.564 68.0495 293.184 67.8672C291.803 67.6849 290.54 67.5938 289.395 67.5938C286.947 67.5938 284.759 68.1276 282.832 69.1953C280.931 70.237 279.421 71.6953 278.301 73.5703C277.207 75.4453 276.66 77.6068 276.66 80.0547V114H260.02Z" fill="black"/>
<path d="M320.42 115.133C316.592 115.133 313.18 114.469 310.186 113.141C307.191 111.786 304.821 109.794 303.076 107.164C301.357 104.508 300.498 101.201 300.498 97.2422C300.498 93.9089 301.11 91.1094 302.334 88.8438C303.558 86.5781 305.225 84.7552 307.334 83.375C309.443 81.9948 311.839 80.9531 314.521 80.25C317.23 79.5469 320.068 79.0521 323.037 78.7656C326.527 78.401 329.339 78.0625 331.475 77.75C333.61 77.4115 335.16 76.9167 336.123 76.2656C337.087 75.6146 337.568 74.651 337.568 73.375V73.1406C337.568 70.6667 336.787 68.7526 335.225 67.3984C333.688 66.0443 331.501 65.3672 328.662 65.3672C325.667 65.3672 323.285 66.0312 321.514 67.3594C319.743 68.6615 318.571 70.3021 317.998 72.2812L302.607 71.0313C303.389 67.3854 304.925 64.2344 307.217 61.5781C309.508 58.8958 312.464 56.8385 316.084 55.4062C319.73 53.9479 323.949 53.2188 328.74 53.2188C332.074 53.2188 335.264 53.6094 338.311 54.3906C341.383 55.1719 344.105 56.3828 346.475 58.0234C348.87 59.6641 350.758 61.7734 352.139 64.3516C353.519 66.9036 354.209 69.9635 354.209 73.5312V114H338.428V105.68H337.959C336.995 107.555 335.706 109.208 334.092 110.641C332.477 112.047 330.537 113.154 328.271 113.961C326.006 114.742 323.389 115.133 320.42 115.133ZM325.186 103.648C327.633 103.648 329.795 103.167 331.67 102.203C333.545 101.214 335.016 99.8854 336.084 98.2188C337.152 96.5521 337.686 94.6641 337.686 92.5547V86.1875C337.165 86.526 336.449 86.8385 335.537 87.125C334.652 87.3854 333.649 87.6328 332.529 87.8672C331.41 88.0755 330.29 88.2708 329.17 88.4531C328.05 88.6094 327.035 88.7526 326.123 88.8828C324.17 89.1693 322.464 89.625 321.006 90.25C319.548 90.875 318.415 91.7214 317.607 92.7891C316.8 93.8307 316.396 95.1328 316.396 96.6953C316.396 98.9609 317.217 100.693 318.857 101.891C320.524 103.063 322.633 103.648 325.186 103.648Z" fill="black"/>
<path d="M381.025 54L392.041 74.9766L403.33 54H420.4L403.018 84L420.869 114H403.877L392.041 93.2578L380.4 114H363.213L381.025 84L363.838 54H381.025Z" fill="black"/>
<path d="M480.205 71.1094L464.971 72.0469C464.71 70.7448 464.15 69.5729 463.291 68.5312C462.432 67.4635 461.299 66.6172 459.893 65.9922C458.512 65.3411 456.859 65.0156 454.932 65.0156C452.354 65.0156 450.179 65.5625 448.408 66.6562C446.637 67.724 445.752 69.1562 445.752 70.9531C445.752 72.3854 446.325 73.5964 447.471 74.5859C448.617 75.5755 450.583 76.3698 453.369 76.9688L464.229 79.1562C470.062 80.3542 474.411 82.2812 477.275 84.9375C480.14 87.5938 481.572 91.0833 481.572 95.4063C481.572 99.3385 480.413 102.789 478.096 105.758C475.804 108.727 472.653 111.044 468.643 112.711C464.658 114.352 460.062 115.172 454.854 115.172C446.911 115.172 440.583 113.518 435.869 110.211C431.182 106.878 428.434 102.346 427.627 96.6172L443.994 95.7578C444.489 98.1797 445.687 100.029 447.588 101.305C449.489 102.555 451.924 103.18 454.893 103.18C457.809 103.18 460.153 102.62 461.924 101.5C463.721 100.354 464.632 98.8828 464.658 97.0859C464.632 95.5755 463.994 94.3385 462.744 93.375C461.494 92.3854 459.567 91.6302 456.963 91.1094L446.572 89.0391C440.713 87.8672 436.351 85.8359 433.486 82.9453C430.648 80.0547 429.229 76.3698 429.229 71.8906C429.229 68.0365 430.27 64.7161 432.354 61.9297C434.463 59.1432 437.419 56.9948 441.221 55.4844C445.049 53.974 449.528 53.2188 454.658 53.2188C462.236 53.2188 468.2 54.8203 472.549 58.0234C476.924 61.2266 479.476 65.5885 480.205 71.1094Z" fill="black"/>
<path d="M519.16 115.172C513.014 115.172 507.728 113.87 503.301 111.266C498.9 108.635 495.514 104.99 493.145 100.328C490.801 95.6667 489.629 90.3021 489.629 84.2344C489.629 78.0885 490.814 72.6979 493.184 68.0625C495.579 63.401 498.978 59.7682 503.379 57.1641C507.78 54.5339 513.014 53.2188 519.082 53.2188C524.316 53.2188 528.9 54.1693 532.832 56.0703C536.764 57.9714 539.876 60.6406 542.168 64.0781C544.46 67.5156 545.723 71.5521 545.957 76.1875H530.254C529.811 73.1927 528.639 70.7839 526.738 68.9609C524.863 67.112 522.402 66.1875 519.355 66.1875C516.777 66.1875 514.525 66.8906 512.598 68.2969C510.697 69.6771 509.212 71.6953 508.145 74.3516C507.077 77.0078 506.543 80.224 506.543 84C506.543 87.8281 507.064 91.0833 508.105 93.7656C509.173 96.4479 510.671 98.4922 512.598 99.8984C514.525 101.305 516.777 102.008 519.355 102.008C521.257 102.008 522.962 101.617 524.473 100.836C526.009 100.055 527.272 98.9219 528.262 97.4375C529.277 95.9271 529.941 94.1172 530.254 92.0078H545.957C545.697 96.5911 544.447 100.628 542.207 104.117C539.993 107.581 536.934 110.289 533.027 112.242C529.121 114.195 524.499 115.172 519.16 115.172Z" fill="black"/>
<path d="M573.721 115.133C569.893 115.133 566.481 114.469 563.486 113.141C560.492 111.786 558.122 109.794 556.377 107.164C554.658 104.508 553.799 101.201 553.799 97.2422C553.799 93.9089 554.411 91.1094 555.635 88.8438C556.859 86.5781 558.525 84.7552 560.635 83.375C562.744 81.9948 565.14 80.9531 567.822 80.25C570.531 79.5469 573.369 79.0521 576.338 78.7656C579.827 78.401 582.64 78.0625 584.775 77.75C586.911 77.4115 588.46 76.9167 589.424 76.2656C590.387 75.6146 590.869 74.651 590.869 73.375V73.1406C590.869 70.6667 590.088 68.7526 588.525 67.3984C586.989 66.0443 584.801 65.3672 581.963 65.3672C578.968 65.3672 576.585 66.0312 574.814 67.3594C573.044 68.6615 571.872 70.3021 571.299 72.2812L555.908 71.0313C556.689 67.3854 558.226 64.2344 560.518 61.5781C562.809 58.8958 565.765 56.8385 569.385 55.4062C573.031 53.9479 577.249 53.2188 582.041 53.2188C585.374 53.2188 588.564 53.6094 591.611 54.3906C594.684 55.1719 597.406 56.3828 599.775 58.0234C602.171 59.6641 604.059 61.7734 605.439 64.3516C606.82 66.9036 607.51 69.9635 607.51 73.5312V114H591.729V105.68H591.26C590.296 107.555 589.007 109.208 587.393 110.641C585.778 112.047 583.838 113.154 581.572 113.961C579.307 114.742 576.689 115.133 573.721 115.133ZM578.486 103.648C580.934 103.648 583.096 103.167 584.971 102.203C586.846 101.214 588.317 99.8854 589.385 98.2188C590.452 96.5521 590.986 94.6641 590.986 92.5547V86.1875C590.465 86.526 589.749 86.8385 588.838 87.125C587.952 87.3854 586.95 87.6328 585.83 87.8672C584.71 88.0755 583.59 88.2708 582.471 88.4531C581.351 88.6094 580.335 88.7526 579.424 88.8828C577.471 89.1693 575.765 89.625 574.307 90.25C572.848 90.875 571.715 91.7214 570.908 92.7891C570.101 93.8307 569.697 95.1328 569.697 96.6953C569.697 98.9609 570.518 100.693 572.158 101.891C573.825 103.063 575.934 103.648 578.486 103.648Z" fill="black"/>
<path d="M637.061 79.3125V114H620.42V54H636.279V64.5859H636.982C638.311 61.0964 640.537 58.3359 643.662 56.3047C646.787 54.2474 650.576 53.2188 655.029 53.2188C659.196 53.2188 662.829 54.1302 665.928 55.9531C669.027 57.776 671.436 60.3802 673.154 63.7656C674.873 67.125 675.732 71.1354 675.732 75.7969V114H659.092V78.7656C659.118 75.0938 658.18 72.2292 656.279 70.1719C654.378 68.0885 651.761 67.0469 648.428 67.0469C646.188 67.0469 644.209 67.5286 642.49 68.4922C640.798 69.4557 639.469 70.862 638.506 72.7109C637.568 74.5339 637.087 76.7344 637.061 79.3125Z" fill="black"/>
<defs>
<clipPath id="clip0_13163_6530">
<rect width="150" height="150" fill="white"/>
</clipPath>
</defs>
</svg>

<svg xmlns="http://www.w3.org/2000/svg" width="676" height="150" fill="none" viewBox="0 0 676 150"><g clip-path="url(#a)"><path fill="#fff" d="M75 150c-10.123 0-19.945-1.984-29.195-5.895-8.932-3.778-16.95-9.186-23.839-16.071a74.8 74.8 0 0 1-16.071-23.839C1.985 94.945 0 85.123 0 75s1.984-19.945 5.895-29.195c3.778-8.932 9.186-16.95 16.071-23.839a74.8 74.8 0 0 1 23.84-16.071C55.055 1.985 64.875 0 75 0s19.945 1.984 29.195 5.895c8.932 3.778 16.949 9.186 23.839 16.071a74.7 74.7 0 0 1 16.071 23.84C148.016 55.055 150 64.875 150 75s-1.984 19.945-5.895 29.195c-3.778 8.932-9.186 16.949-16.071 23.839a74.8 74.8 0 0 1-23.839 16.071C94.945 148.016 85.123 150 75 150"/><path fill="#000" d="M74.999 146.026c39.226 0 71.025-31.799 71.025-71.026S114.225 3.974 74.999 3.974 3.973 35.774 3.973 75s31.799 71.026 71.026 71.026"/><path fill="#fff" d="M124.297 51.335h-13.594a19.25 19.25 0 0 0-4.779-7.906 19.2 19.2 0 0 0-7.906-4.789V25.056h-9.657v13.161a18.2 18.2 0 0 0-9.038 4.943l-6.435 6.434a4.835 4.835 0 0 0 0 6.832 4.835 4.835 0 0 0 6.831 0l6.435-6.435c1.672-1.672 3.932-2.572 6.35-2.545 2.471.032 4.81 1.032 6.594 2.815 3.64 3.64 3.762 9.451.27 12.944l-13.531 13.53c-3.493 3.493-9.303 3.371-12.944-.27a4.836 4.836 0 0 0-6.832 0 4.836 4.836 0 0 0 0 6.832 19.14 19.14 0 0 0 13.552 5.636c4.752 0 9.473-1.783 13.055-5.366l13.531-13.53a18.26 18.26 0 0 0 4.932-9.039h13.177v-9.657z"/><path fill="#fff" d="m69.524 93.05-6.434 6.435c-3.493 3.493-9.298 3.371-12.944-.27-3.64-3.64-3.762-9.451-.27-12.944l13.531-13.53c3.493-3.493 9.303-3.371 12.944.27a4.835 4.835 0 0 0 6.831 0 4.835 4.835 0 0 0 0-6.832c-7.408-7.409-19.34-7.53-26.601-.27L43.05 79.439a18.26 18.26 0 0 0-4.932 9.04H24.94v9.656h13.595a19.24 19.24 0 0 0 4.778 7.906 19.2 19.2 0 0 0 7.906 4.779v13.6h9.658v-13.177a18.18 18.18 0 0 0 9.038-4.932l6.435-6.435a4.836 4.836 0 0 0 0-6.831 4.835 4.835 0 0 0-6.832 0z"/></g><path fill="#000" d="M196.953 114V34h52.969v13.945h-36.055v19.063h32.539v13.945h-32.539V114zM260.02 114V54h16.132v10.469h.625q1.641-5.586 5.508-8.438 3.867-2.89 8.906-2.89 1.25 0 2.696.156 1.445.156 2.539.43v14.765q-1.172-.351-3.242-.625a29 29 0 0 0-3.789-.273q-3.672 0-6.563 1.601a11.8 11.8 0 0 0-4.531 4.375q-1.641 2.813-1.641 6.485V114zM320.42 115.133q-5.743 0-10.234-1.992-4.493-2.032-7.11-5.977-2.578-3.984-2.578-9.922 0-5 1.836-8.398 1.836-3.399 5-5.469t7.187-3.125a55 55 0 0 1 8.516-1.484q5.235-.548 8.438-1.016 3.203-.507 4.648-1.484t1.445-2.891v-.234q0-3.71-2.343-5.743-2.305-2.03-6.563-2.03-4.492 0-7.148 1.991-2.656 1.954-3.516 4.922l-15.391-1.25q1.172-5.469 4.61-9.453 3.437-4.024 8.867-6.172 5.47-2.187 12.656-2.187 5 0 9.571 1.172 4.608 1.171 8.164 3.632a17.7 17.7 0 0 1 5.664 6.329q2.07 3.827 2.07 9.18V114h-15.781v-8.32h-.469a17 17 0 0 1-3.867 4.961q-2.422 2.11-5.821 3.32-3.397 1.172-7.851 1.172m4.766-11.485q3.671 0 6.484-1.445 2.812-1.484 4.414-3.984t1.602-5.664v-6.368q-.781.508-2.149.938-1.328.39-3.008.742a150 150 0 0 1-3.359.586q-1.68.234-3.047.43-2.93.43-5.117 1.367t-3.399 2.54q-1.21 1.561-1.211 3.905 0 3.399 2.461 5.196 2.5 1.757 6.329 1.757M381.025 54l11.016 20.977L403.33 54h17.07l-17.382 30 17.851 30h-16.992l-11.836-20.742L380.4 114h-17.187l17.812-30-17.187-30zM480.205 71.11l-15.234.937a7.9 7.9 0 0 0-1.68-3.516q-1.289-1.602-3.398-2.539-2.071-.976-4.961-.976-3.867 0-6.524 1.64-2.656 1.602-2.656 4.297 0 2.148 1.719 3.633t5.898 2.383l10.86 2.187q8.75 1.797 13.046 5.781 4.297 3.985 4.297 10.47 0 5.898-3.476 10.351-3.438 4.453-9.453 6.953-5.977 2.461-13.789 2.461-11.914 0-18.985-4.961-7.031-5-8.242-13.594l16.367-.86q.743 3.634 3.594 5.548 2.852 1.875 7.305 1.875 4.374 0 7.031-1.68 2.695-1.719 2.734-4.414-.039-2.266-1.914-3.711-1.875-1.485-5.781-2.266l-10.391-2.07q-8.788-1.758-13.086-6.094-4.257-4.335-4.257-11.054 0-5.782 3.125-9.961 3.164-4.18 8.867-6.446 5.742-2.265 13.437-2.265 11.367 0 17.891 4.804 6.563 4.805 7.656 13.086M519.16 115.172q-9.219 0-15.859-3.906-6.602-3.946-10.156-10.938-3.516-6.992-3.516-16.094 0-9.218 3.555-16.171 3.593-6.993 10.195-10.899 6.601-3.945 15.703-3.945 7.851 0 13.75 2.851 5.898 2.851 9.336 8.008t3.789 12.11h-15.703q-.664-4.493-3.516-7.227-2.812-2.773-7.383-2.773-3.867 0-6.757 2.109-2.852 2.07-4.453 6.055T506.543 84q0 5.742 1.562 9.766 1.602 4.023 4.493 6.132t6.757 2.11q2.852 0 5.118-1.172 2.304-1.172 3.789-3.398 1.523-2.265 1.992-5.43h15.703q-.39 6.875-3.75 12.109-3.32 5.196-9.18 8.125t-13.867 2.93M573.721 115.133q-5.742 0-10.235-1.992-4.491-2.032-7.109-5.977-2.578-3.984-2.578-9.922 0-5 1.836-8.398 1.836-3.399 5-5.469t7.187-3.125a55 55 0 0 1 8.516-1.484q5.234-.548 8.437-1.016 3.203-.507 4.649-1.484 1.445-.977 1.445-2.891v-.234q0-3.71-2.344-5.743-2.305-2.03-6.562-2.03-4.493 0-7.149 1.991-2.655 1.954-3.515 4.922l-15.391-1.25q1.172-5.469 4.61-9.453 3.437-4.024 8.867-6.172 5.468-2.187 12.656-2.187 5 0 9.57 1.172 4.61 1.171 8.164 3.632a17.65 17.65 0 0 1 5.664 6.329q2.071 3.827 2.071 9.18V114h-15.781v-8.32h-.469a17 17 0 0 1-3.867 4.961q-2.422 2.11-5.821 3.32-3.398 1.172-7.851 1.172m4.765-11.485q3.672 0 6.485-1.445 2.812-1.484 4.414-3.984 1.6-2.5 1.601-5.664v-6.368q-.781.508-2.148.938-1.328.39-3.008.742-1.68.313-3.359.586-1.68.234-3.047.43-2.93.43-5.117 1.367-2.188.937-3.399 2.54-1.21 1.561-1.211 3.905 0 3.399 2.461 5.196 2.5 1.757 6.328 1.757M637.061 79.313V114H620.42V54h15.859v10.586h.703q1.993-5.235 6.68-8.281 4.688-3.087 11.367-3.086 6.25 0 10.899 2.734t7.226 7.813q2.578 5.04 2.578 12.03V114h-16.64V78.766q.039-5.508-2.813-8.594-2.851-3.126-7.851-3.125-3.36 0-5.938 1.445-2.539 1.446-3.984 4.219-1.406 2.734-1.445 6.602"/><defs><clipPath id="a"><path fill="#fff" d="M0 0h150v150H0z"/></clipPath></defs></svg>
